!!!SOCIAL_FUNCTION:	songs of the ghost dance
!!!PDT:	1936
!!!OTL: No_33_Opening_Song_of_the_Ghost_Dance.krn
!!!REG: Oklahoma and Montana
!!!LANG: Tone
!!!LING_GROUP: Algonquin
**kern
*staff1
=1-
=
*clefF4
*k[b-e-a-d-g-]
*M3/4
16d-\LK
8.d-\J
4d-\
8B-\L
8d-\J
=2
*M2/4
8A-\L
8A-\J
8A-\
8r
=3
*M3/4
16d-\LK
8.d-\J
4d-\
8B-\L
8d-\J
=4
*M2/4
8A-\L
8A-\J
8A-\
8r
=5
*M3/4
8d-\L
8A-\J
8A-\L
8A-\J
8F\L
8B-\J
=6
*M2/4
4A-\
16A-\LK
8.F\J
=7
*M3/4
4F\
4F\
8F\
8r
=8
8B-\L
8A-\J
8A-\L
8A-\J
8F\L
8B-\J
=9
*M2/4
4A-\
16A-\LK
8.F\J
=10
*M3/4
4F\
4F\
8F\
8r
=11
*M7/8
8d-\L
8B-\
8B-\
8B-\
8d-\
8B-\
16A-\L
16A-\JJ
=12
*M3/4
4A-\
4A-\
8A-\
8r
=13
*M7/8
8d-\L
8B-\
8B-\
8B-\
8d-\
8B-\
16A-\L
16A-\JJ
=14
*M3/4
4A-\
4A-\
8A-\
8r
=15
8B-\L
8A-\J
8A-\L
8A-\J
8F\L
8A-\J
=16
*M2/4
8A-\L
8A-\J
8F\L
8F\J
=17
*M3/4
4F\
4F\
8F\
8r
=18
8B-\L
8A-\J
8A-\L
8A-\J
8F\L
8A-\J
=19
*M2/4
8A-\L
8A-\J
8F\L
8F\J
=20
*M3/4
4F\
4F\
8F\
8r
==
*-
